packages/components/src/telekom/icons/weather/cloudy-snow/selected.svg

<?xml version="1.0" encoding="UTF-8"?>
<svg width="24px" height="24px" viewBox="0 0 24 24" version="1.1" xmlns="http://www.w3.org/2000/svg" xmlns:xlink="http://www.w3.org/1999/xlink">
    <title>icon/weather/cloudy-snow/selected</title>
    <g id="icon/weather/cloudy-snow/selected" stroke="none" stroke-width="1" fill="none" fill-rule="evenodd">
        <path d="M7.07965,18.6218 L8.11915,19.2218 L7.43865,20.3998 L8.79965,20.3998 L8.79965,21.5998 L7.43865,21.5998 L8.11915,22.7783 L7.07965,23.3783 L6.39965,22.1998 L5.71915,23.3783 L4.67965,22.7783 L5.36015,21.5998 L3.99965,21.5998 L3.99965,20.3998 L5.36015,20.3998 L4.67965,19.2218 L5.71915,18.6218 L6.39965,19.7998 L7.07965,18.6218 Z M12.27965,15.0218 L13.31915,15.6218 L12.63865,16.7998 L13.99965,16.7998 L13.99965,17.9998 L12.63865,17.9998 L13.31915,19.1783 L12.27965,19.7783 L11.59965,18.5998 L10.91915,19.7783 L9.87965,19.1783 L10.56015,17.9998 L9.19965,17.9998 L9.19965,16.7998 L10.56015,16.7998 L9.87965,15.6218 L10.91915,15.0218 L11.59965,16.1998 L12.27965,15.0218 Z M10.49515,5.9453 C12.84915,5.9453 14.92265,7.4123 15.72815,9.6193 C17.10915,10.3468 17.98915,11.7938 17.98915,13.3723 C17.98915,15.1723 16.8667388,16.7111129 15.290886,17.3237693 L15.09965,17.3928 L15.09965,15.9553 C15.09965,15.6379667 14.9487364,15.3415716 14.6978283,15.1542575 L14.59915,15.0893 L12.09865,13.6463 C11.828275,13.4901125 11.5031578,13.4705891 11.2187623,13.5873947 L11.09965,13.6458 L8.60065,15.0843 C8.32509444,15.2429667 8.14356358,15.5217321 8.10662531,15.833156 L8.09965,15.9513 L8.09965,17.6023 L7.51365,17.6018 L6.89965,17.2468 C6.6288375,17.0906125 6.3029,17.0710891 6.01830625,17.1882297 L5.89915,17.2468 L5.28915,17.5993 L4.42765,17.5983 C2.40365,17.4908 0.78915,15.8043 0.78915,13.7413 C0.78915,12.3418 1.54415,11.0578 2.74115,10.3758 C2.84315,8.5538 4.34865,7.1028 6.18415,7.1028 C6.45465,7.1028 6.72365,7.1358 6.98965,7.2008 C7.98265,6.3888 9.21615,5.9453 10.49515,5.9453 Z M19.74615,10.5463 C19.9545944,10.3383 20.2776068,10.3151889 20.5115108,10.4769667 L20.59465,10.5463 L21.44415,11.3948 C21.67815,11.6293 21.67815,12.0093 21.44415,12.2438 C21.32665,12.3608 21.17315,12.4193 21.01965,12.4193 C20.89685,12.4193 20.77373,12.38154 20.66949,12.306788 L20.59515,12.2438 L19.74615,11.3953 C19.51215,11.1608 19.51215,10.7803 19.74615,10.5463 Z M16.60015,4.3998 C18.25415,4.3998 19.60015,5.7458 19.60015,7.3998 C19.60015,8.5318 18.96965,9.5183 18.04215,10.0293 C17.66815,9.5498 17.21965,9.1258 16.69815,8.7903 C16.13265,7.5273 15.20765,6.4958 14.07015,5.7938 C14.60315,4.9578 15.53665,4.3998 16.60015,4.3998 Z M22.85015,6.7998 C23.18115,6.7998 23.45015,7.0683 23.45015,7.3998 C23.45015,7.6986 23.23226,7.94556 22.947383,7.991964 L22.85015,7.9998 L21.65015,7.9998 C21.31865,7.9998 21.05015,7.7318 21.05015,7.3998 C21.05015,7.10145 21.267635,6.85413 21.5527955,6.8076495 L21.65015,6.7998 L22.85015,6.7998 Z M11.75665,2.5563 C11.9650944,2.3483 12.2881068,2.32518889 12.5220108,2.48696667 L12.60515,2.5563 L13.45415,3.4048 C13.68815,3.6393 13.68815,4.0193 13.45415,4.2538 C13.33665,4.3708 13.18315,4.4293 13.02965,4.4293 C12.90685,4.4293 12.78373,4.39154 12.67949,4.316788 L12.60515,4.2538 L11.75665,3.4053 C11.52215,3.1708 11.52215,2.7903 11.75665,2.5563 Z M20.59565,2.5563 C20.83015,2.3223 21.20965,2.3218 21.44415,2.5563 C21.65215,2.76474444 21.6752611,3.08815185 21.5134833,3.32214362 L21.44415,3.4053 L20.59515,4.2538 C20.47815,4.3708 20.32415,4.4293 20.17065,4.4293 C20.01715,4.4293 19.86365,4.3703 19.74665,4.2538 C19.5382056,4.04535556 19.5150451,3.72194815 19.6771685,3.48795638 L19.74665,3.4048 L20.59565,2.5563 Z M16.60015,0.5498 C16.89805,0.5498 17.14573,0.767285 17.192287,1.0524455 L17.20015,1.1498 L17.20015,2.3498 C17.20015,2.6818 16.93115,2.9498 16.60015,2.9498 C16.3018,2.9498 16.05448,2.73272 16.0079995,2.447276 L16.00015,2.3498 L16.00015,1.1498 C16.00015,0.8183 16.26865,0.5498 16.60015,0.5498 Z" id="Shape" fill="#262626"></path>
    </g>
</svg>

<svg width="24" height="24" xmlns="http://www.w3.org/2000/svg"><path d="M7.08 18.622l1.04.6-.681 1.178h1.36v1.2H7.44l.68 1.178-1.04.6L6.4 22.2l-.68 1.178-1.04-.6.681-1.178H4v-1.2h1.36l-.68-1.178 1.04-.6.68 1.178.68-1.178zm5.2-3.6l1.04.6-.681 1.178h1.36V18h-1.36l.68 1.178-1.04.6-.68-1.178-.68 1.178-1.04-.6L10.56 18H9.2v-1.2h1.36l-.68-1.178 1.04-.6.68 1.178.68-1.178zm-1.785-9.077a5.56 5.56 0 015.233 3.674 4.25 4.25 0 012.261 3.753 4.24 4.24 0 01-2.698 3.952l-.191.069v-1.438a1 1 0 00-.402-.8l-.099-.066-2.5-1.443a1 1 0 00-.88-.059l-.12.059-2.498 1.438a1 1 0 00-.494.75l-.007.117v1.651h-.586l-.614-.355a1.002 1.002 0 00-.882-.059l-.119.059-.61.352h-.861A3.858 3.858 0 01.789 13.74c0-1.4.755-2.683 1.952-3.365.102-1.822 1.608-3.273 3.443-3.273.27 0 .54.033.806.098a5.53 5.53 0 013.505-1.256zm9.251 4.601a.6.6 0 01.766-.069l.083.07.85.848a.601.601 0 01-.776.912l-.074-.063-.849-.849a.601.601 0 010-.849zM16.6 4.4c1.654 0 3 1.346 3 3 0 1.132-.63 2.118-1.558 2.63a5.45 5.45 0 00-1.344-1.24 6.769 6.769 0 00-2.628-2.996A3 3 0 0116.6 4.4zm6.25 2.4a.6.6 0 01.097 1.192L22.85 8h-1.2a.6.6 0 01-.097-1.192l.097-.008h1.2zM11.757 2.556a.6.6 0 01.765-.069l.083.07.85.848a.601.601 0 01-.776.912l-.074-.063-.848-.849a.6.6 0 010-.849zm8.839 0a.6.6 0 01.917.766l-.069.083-.849.849a.599.599 0 01-.848 0 .6.6 0 01-.07-.766l.07-.083.849-.849zM16.6.55a.6.6 0 01.592.502l.008.098v1.2a.6.6 0 01-1.192.097L16 2.35v-1.2a.6.6 0 01.6-.6z" fill="#000" fill-rule="evenodd"/></svg>
